lib/brands/icons/jasmine.svg

<svg xmlns="http://www.w3.org/2000/svg" fill="none" aria-hidden="true" viewBox="0 0 48 48"><g id="jasmine-Icon"><g id="Union"><path fill="#8A4182" d="M21.1662 25.3303L23.4218 26.9602V28.1315L19.0307 34.1409L15.6545 31.702L20.0451 25.6927L21.1662 25.3303Z"/><path fill="#8A4182" d="M20.8086 24.2365L21.67 21.5999L20.9771 20.6517L13.8727 18.3566L12.5832 22.303L19.6884 24.5986L20.8086 24.2365Z"/><path fill="#8A4182" d="M22.6058 20.9237H25.3942L26.087 19.9753V12.5478H21.9135V19.9761L22.6058 20.9237Z"/><path fill="#8A4182" d="M26.8344 25.3301L24.5782 26.9597L24.5787 28.1317L28.9694 34.1409L32.3458 31.702L27.9544 25.6922L26.8344 25.3301Z"/><path fill="#8A4182" d="M27.1914 24.2362L26.3296 21.5993L27.0224 20.652L34.1271 18.3563L35.4169 22.303L28.3124 24.5981L27.1914 24.2362Z"/><path fill="#8A4182" d="M29.5026 26.2301L34.9032 27.9751L35.2602 26.8813L29.8596 25.1362L29.5026 26.2301Z"/><path fill="#8A4182" d="M28.0153 19.3539L27.0795 18.678L30.417 14.1099L31.3528 14.7858L28.0153 19.3539Z"/><path fill="#8A4182" d="M16.7056 14.744L20.0427 19.3124L20.9786 18.6362L17.6416 14.0681L16.7056 14.744Z"/><path fill="#8A4182" d="M13.0749 27.9068L12.7177 26.813L18.1177 25.0688L18.475 26.1626L13.0749 27.9068Z"/><path fill="#8A4182" d="M24.5429 35.4082H23.3862V29.7616H24.5429V35.4082Z"/><path fill="#8A4182" fill-rule="evenodd" d="M24.0009 6.10071C14.0753 6.10071 6 14.129 6 23.9971C6 33.8688 14.0753 41.8993 24.0009 41.8993C33.9256 41.8993 42 33.8688 42 23.9971C42 14.129 33.9256 6.10071 24.0009 6.10071ZM24.0009 9.72445C31.9273 9.72445 38.3552 16.1137 38.3552 23.9971C38.3552 31.883 31.9273 38.2751 24.0009 38.2751C16.0718 38.2751 9.64482 31.883 9.64482 23.9971C9.64482 16.1137 16.0718 9.72445 24.0009 9.72445Z" clip-rule="evenodd"/></g></g></svg>

<svg xmlns="http://www.w3.org/2000/svg" fill="none" aria-hidden="true" viewBox="0 0 48 48"><path fill="#8A4182" d="m21.166 25.33 2.256 1.63v1.171l-4.391 6.01-3.376-2.439 4.39-6.01 1.121-.362Zm-.357-1.094.861-2.636-.693-.948-7.104-2.295-1.29 3.946 7.105 2.296 1.12-.363Zm1.797-3.312h2.788l.693-.949v-7.427h-4.174v7.428l.693.948Zm4.228 4.406-2.256 1.63v1.172l4.391 6.009 3.377-2.439-4.392-6.01-1.12-.362Zm.357-1.094L26.33 21.6l.692-.947 7.105-2.296 1.29 3.947-7.105 2.295-1.12-.362Zm2.312 1.994 5.4 1.745.357-1.094-5.4-1.745-.357 1.094Zm-1.488-6.876-.936-.676 3.338-4.568.936.676-3.338 4.568Zm-11.309-4.61 3.337 4.568.936-.676-3.337-4.568-.936.676Zm-3.631 13.163-.357-1.094 5.4-1.744.357 1.094-5.4 1.744Zm11.468 7.501h-1.157v-5.646h1.157v5.646Z"/><path fill="#8A4182" fill-rule="evenodd" d="M24 6.1c-9.925 0-18 8.029-18 17.897C6 33.87 14.075 41.9 24 41.9c9.926 0 18-8.03 18-17.902 0-9.868-8.074-17.896-18-17.896Zm0 3.624c7.927 0 14.355 6.39 14.355 14.273 0 7.886-6.428 14.278-14.354 14.278-7.93 0-14.356-6.392-14.356-14.278 0-7.883 6.427-14.273 14.356-14.273Z" clip-rule="evenodd"/></svg>
